X:6
T:John Peel (Bampton) (California)
M:4/4
S:Binghamton MM
H:Dance composed by Steve Woodruff.
O:England; Oxfordshire; Bampton.
R:Reel
P:A(AB)4
K:G
P:A
BA|G2G2 g2ge| dedc B2AG| A2A2 e2AB| cdcA F2 BA|
G2G2 g2d2| efge d2Bd| e2cA GABc| A4 G2|]
P:B
Bc|d2dc B2Bc| dedc B2AB| c2cB A2AB| cdcA F2 BA|
G2G2 g2d2| efge d2Bd| e2cA GABc| A4 G2|]

